Adwaita++/actions/22/group-new.svg

<svg height="22" width="22" xmlns="http://www.w3.org/2000/svg">
  <g fill="#444" transform="translate(3 -3)">
    <path d="m2 8s-1 0-1 1v11s0 1 1 1h7v-4h2v-2h4v-4c0-1-1-1-1-1h-5l-2-2z"/>
    <path d="m12 16v2h-2v2h2v2h2v-2h2v-2h-2v-2z"/>
  </g>
</svg>

<svg xmlns="http://www.w3.org/2000/svg" width="22" height="22" version="1.1">
 <defs>
  <style id="current-color-scheme" type="text/css">
   .ColorScheme-Text { color:#444444; } .ColorScheme-Highlight { color:#4285f4; }
  </style>
 </defs>
 <g transform="translate(3,-3)">
  <path style="fill:currentColor" class="ColorScheme-Text" d="M 2,8 C 2,8 1,8 1,9 V 20 C 1,20 1,21 2,21 H 9 V 17 H 11 V 15 H 15 V 11 C 15,10 14,10 14,10 H 9 L 7,8 Z"/>
  <path style="fill:currentColor" class="ColorScheme-Text" d="M 12,16 V 18 H 10 V 20 H 12 V 22 H 14 V 20 H 16 V 18 H 14 V 16 Z"/>
 </g>
</svg>
